e991492213d0d83d642f8f7fe6aa7329.svg

<?xml version="1.0" encoding="UTF-8" standalone="no"?>
<svg width="40px" height="20px" viewBox="0 0 40 20" version="1.1" xmlns="http://www.w3.org/2000/svg" xmlns:xlink="http://www.w3.org/1999/xlink">
    <!-- Generator: Sketch 50.2 (55047) - http://www.bohemiancoding.com/sketch -->
    <title>ic_resource_page</title>
    <desc>Created with Sketch.</desc>
    <defs>
        <path d="M21.6666667,-4.26446281 C21.6666667,-5.21900826 20.9166667,-6 20,-6 C19.0833333,-6 18.3333333,-5.21900826 18.3333333,-4.26446281 L18.3333333,2.67768595 L15,2.67768595 L15,13.0909091 L25,13.0909091 L25,2.67768595 L21.6666667,2.67768595 L21.6666667,-4.26446281 Z M15,19.1010101 C15,20.9393939 16.4,22.4949495 18.3333333,23.0888889 L18.3333333,29 L21.6666667,29 L21.6666667,23.0888889 C23.6,22.4949495 25,20.9393939 25,19.1010101 L25,16.2727273 L15,16.2727273 L15,19.1010101 Z" id="path-1"></path>
    </defs>
    <g id="ic_resource_page" stroke="none" stroke-width="1" fill="none" fill-rule="evenodd">
        <g transform="translate(0.000000, -2.000000)">
            <polygon id="Shape" points="0 0 40 0 40 24 0 24"></polygon>
            <mask id="mask-2" fill="white">
                <use xlink:href="#path-1"></use>
            </mask>
            <use id="Shape" fill="#FFFFFF" fill-rule="nonzero" transform="translate(20.000000, 11.500000) rotate(90.000000) translate(-20.000000, -11.500000) " xlink:href="#path-1"></use>
        </g>
    </g>
</svg>

<svg width="40" height="20" xmlns="http://www.w3.org/2000/svg" xmlns:xlink="http://www.w3.org/1999/xlink"><defs><path d="M21.667-4.264C21.667-5.22 20.917-6 20-6s-1.667.781-1.667 1.736v6.942H15V13.09h10V2.678h-3.333v-6.942zM15 19.1c0 1.838 1.4 3.394 3.333 3.988V29h3.334v-5.911C23.6 22.495 25 20.939 25 19.1v-2.828H15V19.1z" id="a"/></defs><g transform="translate(0 -2)" fill="none" fill-rule="evenodd"><path d="M0 0h40v24H0z"/><use fill="#FFF" fill-rule="nonzero" transform="rotate(90 20 11.5)" xlink:href="#a"/></g></svg>
